public/images/hashed/ce152bb0d1f10fb08ada89bc9930cca5.svg

<?xml version="1.0" encoding="UTF-8"?>
<svg width="80px" height="80px" viewBox="0 0 80 80" version="1.1" xmlns="http://www.w3.org/2000/svg" xmlns:xlink="http://www.w3.org/1999/xlink">
    <!-- Generator: Sketch 64 (93537) - https://sketch.com -->
    <title>Icon-Architecture/64/Arch_AWS-Server-Migration-Service_64</title>
    <desc>Created with Sketch.</desc>
    <defs>
        <linearGradient x1="0%" y1="100%" x2="100%" y2="0%" id="linearGradient-1">
            <stop stop-color="#055F4E" offset="0%"></stop>
            <stop stop-color="#56C0A7" offset="100%"></stop>
        </linearGradient>
    </defs>
    <g id="Icon-Architecture/64/Arch_AWS-Server-Migration-Service_64" stroke="none" stroke-width="1" fill="none" fill-rule="evenodd">
        <g id="Icon-Architecture-BG/64/Migration-Transfer" fill="url(#linearGradient-1)">
            <rect id="Rectangle" x="0" y="0" width="80" height="80"></rect>
        </g>
        <path d="M16.9723788,31 L30.8757044,31 L30.8757044,29 L16.9723788,29 L16.9723788,31 Z M46.7652194,66 L48.7514088,66 L48.7514088,57 L46.7652194,57 L46.7652194,66 Z M39.8135566,68 L41.799746,68 L41.799746,57 L39.8135566,57 L39.8135566,68 Z M32.8618938,66 L34.8480831,66 L34.8480831,57 L32.8618938,57 L32.8618938,66 Z M16.9723788,26 L30.8757044,26 L30.8757044,24 L16.9723788,24 L16.9723788,26 Z M16.9723788,21 L30.8757044,21 L30.8757044,19 L16.9723788,19 L16.9723788,21 Z M14.9861894,52 L32.8618938,52 L32.8618938,14 L14.9861894,14 L14.9861894,52 Z M34.8480831,13 L34.8480831,53 C34.8480831,53.552 34.4041698,54 33.8549884,54 L13.9930947,54 C13.4439133,54 13,53.552 13,53 L13,13 C13,12.448 13.4439133,12 13.9930947,12 L33.8549884,12 C34.4041698,12 34.8480831,12.448 34.8480831,13 L34.8480831,13 Z M67.9985769,43.567 C68.0541902,46.598 66.478149,49.475 63.5604368,51.649 C60.6447108,53.84 57.0477218,53.994 56.8967714,54 L46.7652194,54 L46.7652194,52 L56.86102,52 C56.8540683,52 59.965434,51.855 62.3766679,50.044 C63.7610419,49.012 66.0709801,46.803 66.0123875,43.586 C66.0123875,39.485 62.9735178,36.127 58.9445326,35.755 C58.4013099,35.705 58.0000996,35.224 58.0447889,34.676 C58.0537267,34.561 58.0716024,34.443 58.0914643,34.318 C58.1560155,33.908 58.2215597,33.483 57.7657293,32.386 C56.9643018,30.456 54.7069976,29.263 52.5251686,29.612 C51.5698115,29.765 50.6879434,30.208 49.9758945,30.894 C49.7345725,31.126 49.3949341,31.222 49.068206,31.146 C48.743464,31.071 48.4773146,30.837 48.3591364,30.522 C46.6857718,26.023 42.3628306,23 37.604914,23 L37.5999485,23 C37.0547395,22.997 36.60884,22.551 36.60884,22 C36.60884,21.448 37.0517602,21 37.5999485,21 L37.8273672,21.002 C42.8792399,21.089 47.4772683,24.069 49.6918694,28.592 C50.4585385,28.106 51.3116069,27.781 52.2133369,27.637 C55.3326473,27.139 58.4350751,28.812 59.598982,31.614 C60.0230335,32.635 60.1312808,33.338 60.1213499,33.906 C64.6766752,34.797 67.9985769,38.787 67.9985769,43.567 L67.9985769,43.567 Z" id="AWS-Server-Migration-Service_Icon_64_Squid" fill="#FFFFFF"></path>
    </g>
</svg>

<svg xmlns="http://www.w3.org/2000/svg" width="80" height="80"><defs><linearGradient id="a" x1="0%" x2="100%" y1="100%" y2="0%"><stop offset="0%" stop-color="#055F4E"/><stop offset="100%" stop-color="#56C0A7"/></linearGradient></defs><g fill="none" fill-rule="evenodd"><path fill="url(#a)" d="M0 0h80v80H0z"/><path fill="#FFF" d="M16.972 31h13.904v-2H16.972v2Zm29.793 35h1.986v-9h-1.986v9Zm-6.951 2H41.8V57h-1.986v11Zm-6.952-2h1.986v-9h-1.986v9Zm-15.89-40h13.904v-2H16.972v2Zm0-5h13.904v-2H16.972v2Zm-1.986 31h17.876V14H14.986v38Zm19.862-39v40c0 .552-.444 1-.993 1H13.993A.996.996 0 0 1 13 53V13c0-.552.444-1 .993-1h19.862c.55 0 .993.448.993 1Zm33.15 30.567c.056 3.031-1.52 5.908-4.438 8.082-2.915 2.191-6.512 2.345-6.663 2.351H46.765v-2h10.096c-.007 0 3.104-.145 5.516-1.956 1.384-1.032 3.694-3.241 3.635-6.458 0-4.101-3.038-7.459-7.067-7.831a.998.998 0 0 1-.9-1.079c.009-.115.027-.233.046-.358.065-.41.13-.835-.325-1.932-.802-1.93-3.059-3.123-5.24-2.774a4.745 4.745 0 0 0-2.55 1.282.985.985 0 0 1-.908.252.999.999 0 0 1-.709-.624C46.686 26.023 42.363 23 37.605 23H37.6a1 1 0 0 1-.991-1c0-.552.443-1 .99-1l.228.002c5.052.087 9.65 3.067 11.865 7.59a6.66 6.66 0 0 1 2.521-.955c3.12-.498 6.222 1.175 7.386 3.977.424 1.021.532 1.724.522 2.292 4.556.891 7.878 4.881 7.878 9.661Z"/></g></svg>
